X:79
%%score 1 2
T:The Gipsies' Round
M:6/8	
L:1/8
K:G
V:1 clef-treble
V:2 clef-bass octave=-1
V:1
[Ad]3B2G|B>cdB2G|[Ec]2B[Gc]2[Bd]|[ce]6:||c2Bc2d&x3A3|
V:2
[FAd]3[Gd]3|[DFB]3[EGB]3|[CGc]3[Ec]2[Gd]|[ce]6:||[Ae]3=F3|
V:1
e2=fe2d&^G6|c2Bc2d&A6|[=Ge]3-[Ge]2[GBd]|[Gce]3[Ad]>c[GB]|[FA]2G A>Bc&x3Fx2|
V:2
E6|A3=F3|C3-C2G|c3^F2G|D2ED3|
V:1
[Gd]>cB [Fc][CA]2|[B,G]6|[EGd]3[Ad]>c[GB]|[FA]2G [FA]>Bc|[Gd]>c[GB] [Ec][FA]2|G6||
V:2
B,2G,D3|E>DC B,G,2|c3F2G|D2ED3|B,2ECD2|G6||

